assets/Glowing star/Flat/glowing_star_flat.svg

<svg width="32" height="32" viewBox="0 0 32 32" fill="none" xmlns="http://www.w3.org/2000/svg">
<path d="M28.9788 17.0028L25.8711 17.2166C25.0368 17.2777 24.6927 18.2958 25.3288 18.8252L27.7169 20.78C28.2384 21.2076 29.0309 20.9836 29.2395 20.3524L29.9486 18.2246C30.1676 17.5933 29.6566 16.9519 28.9788 17.0028Z" fill="#FCD53F"/>
<path d="M21.7494 2.69148L21.0294 5.59149C20.8294 6.37149 21.6894 7.00148 22.3694 6.57148L24.9094 4.99149C25.4594 4.65149 25.4894 3.85148 24.9594 3.47148L23.1794 2.18148C22.6494 1.79148 21.9094 2.06148 21.7494 2.69148Z" fill="#FCD53F"/>
<path d="M6.43056 4.99468L8.96056 6.57468C9.64056 7.00468 10.5005 6.38468 10.3105 5.59468L9.59056 2.69467C9.43056 2.06467 8.69055 1.79468 8.16055 2.17468L6.38055 3.46468C5.85055 3.86468 5.88056 4.65468 6.43056 4.99468Z" fill="#FCD53F"/>
<path d="M4.18524 20.7128L6.47524 18.7928C7.09524 18.2728 6.76524 17.2628 5.96524 17.2128L2.98524 17.0028C2.33524 16.9528 1.84524 17.5828 2.04524 18.2028L2.72524 20.2928C2.92524 20.9128 3.69524 21.1328 4.18524 20.7128Z" fill="#FCD53F"/>
<path d="M17.7952 28.0047L16.6752 25.2347C16.3752 24.4847 15.3152 24.4847 15.0152 25.2347L13.8952 28.0047C13.6552 28.6047 14.0952 29.2647 14.7452 29.2647H16.9452C17.5952 29.2547 18.0352 28.6047 17.7952 28.0047Z" fill="#FCD53F"/>
<path d="M17.5645 3.3242L19.2913 7.04387C19.617 7.73821 20.2584 8.22424 21.0083 8.33335L25.0639 8.95825C26.8993 9.23599 27.6393 11.4876 26.3565 12.8168L23.268 16.0008C22.7647 16.5166 22.5378 17.2506 22.6562 17.9648L23.3667 22.3391C23.6726 24.2238 21.6793 25.6323 20.0117 24.7098L16.6074 22.8153C15.9166 22.4284 15.0878 22.4284 14.397 22.8153L10.9927 24.7098C9.32509 25.6323 7.33183 24.2238 7.63773 22.3391L8.34819 17.9648C8.4666 17.2506 8.23965 16.5166 7.7364 16.0008L4.64785 12.8168C3.35519 11.4777 4.10513 9.23599 5.9405 8.95825L9.99608 8.33335C10.746 8.21432 11.3874 7.72829 11.713 7.04387L13.4399 3.3242C14.2589 1.5586 16.7455 1.5586 17.5645 3.3242Z" fill="#FCD53F"/>
</svg>

<svg xmlns="http://www.w3.org/2000/svg" width="32" height="32" fill="none"><path fill="#FCD53F" d="m28.979 17.003-3.108.214c-.834.06-1.178 1.079-.542 1.608l2.388 1.955c.521.428 1.314.204 1.523-.428l.709-2.127c.219-.632-.292-1.273-.97-1.222ZM21.75 2.691l-.72 2.9c-.2.78.66 1.41 1.34.98l2.54-1.58c.55-.34.58-1.14.05-1.52l-1.78-1.29a.912.912 0 0 0-1.43.51ZM6.43 4.995l2.53 1.58c.68.43 1.54-.19 1.35-.98l-.72-2.9a.92.92 0 0 0-1.43-.52l-1.78 1.29c-.53.4-.5 1.19.05 1.53ZM4.185 20.713l2.29-1.92c.62-.52.29-1.53-.51-1.58l-2.98-.21a.919.919 0 0 0-.94 1.2l.68 2.09c.2.62.97.84 1.46.42ZM17.795 28.005l-1.12-2.77c-.3-.75-1.36-.75-1.66 0l-1.12 2.77c-.24.6.2 1.26.85 1.26h2.2a.921.921 0 0 0 .85-1.26Z"/><path fill="#FCD53F" d="m17.564 3.324 1.727 3.72c.326.694.967 1.18 1.717 1.29l4.056.624c1.835.278 2.575 2.53 1.293 3.859L23.268 16a2.284 2.284 0 0 0-.612 1.964l.71 4.374c.307 1.885-1.687 3.293-3.354 2.37l-3.405-1.894a2.25 2.25 0 0 0-2.21 0l-3.404 1.895c-1.668.922-3.661-.486-3.355-2.37l.71-4.375A2.284 2.284 0 0 0 7.736 16l-3.088-3.184c-1.293-1.34-.543-3.581 1.293-3.859l4.055-.625a2.307 2.307 0 0 0 1.717-1.29l1.727-3.719c.819-1.765 3.306-1.765 4.124 0Z"/></svg>
